X: 17433
T: Highland Dream
R: waltz
M: 3/4
K: Gmajor
GA|"G"B3G B2|"D"A4 BA|"C"G2 F2 E2|"G"D4 GA|
"G"B3G B2|"G"d3c B2|"D"A6|"D7"A4 GA|
"G"B3G B2|"D"A4 BA|"C"G2 F2 E2|"G"D4 GA|
"G"B3G B2|"D"A3G F2|"G"G6|G2 Bc||
"G"d3B d2|"C"g2 f2 e2|"G"d3B d2|"C"c4 GA|
"G"B3G B2|d3c B2|"D"A6|"D7"A4 Bc|
"G"d3B d2|"C"g2 f2 e2|"G"d3B d2|"C"c4 GA|
"G"B3G B2|"D"A3G F2|"G"G6|G4 z2||

